dist/img/main/cards/design-icon.svg

<svg width="33" height="33" viewBox="0 0 33 33" fill="none" xmlns="http://www.w3.org/2000/svg">
<path d="M18.7425 2.22739C18.9394 2.03047 19.05 1.7634 19.05 1.48492C19.05 1.20645 18.9394 0.939375 18.7425 0.742462C18.5455 0.545549 18.2785 0.434925 18 0.434925C17.7215 0.434925 17.4545 0.545549 17.2575 0.742462L14.2877 3.71231C13.6969 4.30305 13.3651 5.10427 13.3651 5.9397C13.3651 6.77513 13.6969 7.57634 14.2877 8.16708L14.5995 8.47892L7.85797 10.8845C7.05238 11.1722 6.32931 11.6525 5.75167 12.2834C5.17403 12.9144 4.75932 13.6769 4.54362 14.5047L0.914458 28.4185C0.787945 28.9048 0.790749 29.4158 0.922592 29.9008C1.05444 30.3857 1.31074 30.8278 1.6661 31.1831C2.02145 31.5385 2.46352 31.7948 2.94847 31.9266C3.43341 32.0585 3.9444 32.0613 4.43076 31.9348L18.3445 28.3056C19.1722 28.0896 19.9345 27.6745 20.5652 27.0966C21.1959 26.5187 21.6758 25.7955 21.9633 24.9898L24.3703 18.2497L24.6822 18.5616C25.2729 19.1523 26.0741 19.4842 26.9095 19.4842C27.745 19.4842 28.5462 19.1523 29.1369 18.5616L32.1068 15.5917C32.3037 15.3948 32.4143 15.1277 32.4143 14.8492C32.4143 14.5708 32.3037 14.3037 32.1068 14.1068C31.9099 13.9099 31.6428 13.7992 31.3643 13.7992C31.0858 13.7992 30.8188 13.9099 30.6219 14.1068L27.652 17.0766C27.4551 17.2735 27.188 17.3842 26.9095 17.3842C26.6311 17.3842 26.364 17.2735 26.1671 17.0766L15.7726 6.68216C15.5757 6.48525 15.4651 6.21817 15.4651 5.9397C15.4651 5.66122 15.5757 5.39415 15.7726 5.19724L18.7425 2.22739ZM22.728 16.6074L19.9853 24.2859C19.8126 24.7688 19.5245 25.2022 19.1461 25.5485C18.7678 25.8947 18.3106 26.1433 17.8144 26.2728L4.61935 29.7148L13.0017 21.3324C13.4483 21.4521 13.9218 21.421 14.3489 21.2441C14.776 21.0672 15.1328 20.7543 15.3639 20.354C15.5951 19.9536 15.6876 19.4882 15.6273 19.0299C15.567 18.5715 15.3571 18.1459 15.0302 17.8191C14.7033 17.4922 14.2777 17.2823 13.8194 17.2219C13.361 17.1616 12.8956 17.2542 12.4953 17.4853C12.0949 17.7165 11.782 18.0733 11.6051 18.5003C11.4282 18.9274 11.3972 19.401 11.5168 19.8475L3.13442 28.2299L6.57499 15.0363C6.70441 14.5401 6.95305 14.0829 7.2993 13.7046C7.64555 13.3262 8.07894 13.0382 8.56182 12.8654L16.2418 10.1212L22.728 16.6074Z" fill="white"/>
</svg>

<svg width="33" height="33" fill="none" xmlns="http://www.w3.org/2000/svg"><path d="M18.742 2.227A1.05 1.05 0 0 0 17.258.742l-2.97 2.97a3.15 3.15 0 0 0 0 4.455l.313.312-6.742 2.405a5.25 5.25 0 0 0-3.314 3.62L.914 28.42a2.883 2.883 0 0 0 3.517 3.516l13.914-3.63a5.25 5.25 0 0 0 3.618-3.315l2.407-6.74.312.312a3.15 3.15 0 0 0 4.455 0l2.97-2.97a1.05 1.05 0 0 0-1.485-1.485l-2.97 2.97a1.05 1.05 0 0 1-1.485 0L15.773 6.682a1.05 1.05 0 0 1 0-1.485l2.97-2.97Zm3.986 14.38-2.743 7.679a3.149 3.149 0 0 1-2.17 1.987L4.618 29.715l8.383-8.383a2.1 2.1 0 1 0-1.485-1.485L3.134 28.23l3.441-13.194a3.15 3.15 0 0 1 1.987-2.17l7.68-2.745 6.486 6.486Z" fill="#fff"/></svg>
